static/fa/svgs/solid/pen-clip.svg

<svg xmlns="http://www.w3.org/2000/svg" viewBox="0 0 512 512"><!--! Font Awesome Free 6.1.1 by @fontawesome - https://fontawesome.com License - https://fontawesome.com/license/free (Icons: CC BY 4.0, Fonts: SIL OFL 1.1, Code: MIT License) Copyright 2022 Fonticons, Inc.--><path d="M492.7 58.75c25 24.99 25 65.55 0 90.55l-52.1 52.1-130-129.97 52.1-52.11c25-24.998 65.6-24.998 90.6 0l39.4 39.43zM240.1 114.9c-8.5-9.4-23.7-9.4-33.1 0L104.1 216.1c-8.5 10.2-23.7 10.2-33.07 0-9.37-8.5-9.37-23.7 0-33.1L173.1 80.97c28.1-28.12 73.7-28.12 101.8 0L417.9 224 229.5 412.5c-48 48-109.2 80.7-175.8 94l-24.99 5c-7.87 1.6-16.01-.9-21.68-7.4-5.674-4.8-8.137-12.9-6.564-20.8l4.999-25C18.78 391.7 51.52 330.5 99.54 282.5L254.1 128l-14-13.1z"/></svg>

<svg xmlns="http://www.w3.org/2000/svg" viewBox="0 0 512 512"><!--! Font Awesome Free 6.1.1 by @fontawesome - https://fontawesome.com License - https://fontawesome.com/license/free (Icons: CC BY 4.0, Fonts: SIL OFL 1.1, Code: MIT License) Copyright 2022 Fonticons, Inc. --><path d="M492.7 58.75C517.7 83.74 517.7 124.3 492.7 149.3L440.6 201.4L310.6 71.43L362.7 19.32C387.7-5.678 428.3-5.678 453.3 19.32L492.7 58.75zM240.1 114.9C231.6 105.5 216.4 105.5 207 114.9L104.1 216.1C95.6 226.3 80.4 226.3 71.03 216.1C61.66 207.6 61.66 192.4 71.03 183L173.1 80.97C201.2 52.85 246.8 52.85 274.9 80.97L417.9 224L229.5 412.5C181.5 460.5 120.3 493.2 53.7 506.5L28.71 511.5C20.84 513.1 12.7 510.6 7.03 504.1C1.356 499.3-1.107 491.2 .4662 483.3L5.465 458.3C18.78 391.7 51.52 330.5 99.54 282.5L254.1 128L240.1 114.9z"/></svg>
